src/actions/symbolic/object-translucent-symbolic.svg

<svg width="16" height="16" version="1.1" viewBox="0 0 16 16" xmlns="http://www.w3.org/2000/svg">
 <path d="m4 1c-1.662 0-3 1.338-3 3v8c0 1.662 1.338 3 3 3h8c1.662 0 3-1.338 3-3v-8c0-1.662-1.338-3-3-3zm0 1h8c1.108 0 2 0.892 2 2v8c0 1.108-0.892 2-2 2h-8c-1.108 0-2-0.892-2-2v-8c0-1.108 0.892-2 2-2z" fill="#363636" fill-rule="evenodd" stroke-linecap="round" stroke-linejoin="round" stroke-width="2" style="paint-order:stroke fill markers"/>
 <path d="m4.416 3 8.584 8.584v-1.4141l-7.1699-7.1699zm4.2422 0 4.3418 4.3418v-1.4141l-2.9277-2.9277zm-5.6582 1.416v1.4141l7.1699 7.1699h1.4141zm0 4.2422v1.4141l2.9277 2.9277h1.4141z" fill="#363636" fill-rule="evenodd" stroke-linecap="round" stroke-linejoin="round" stroke-width="2" style="paint-order:stroke fill markers"/>
</svg>

<svg xmlns="http://www.w3.org/2000/svg" width="16" height="16">
    <path fill="#050505" fill-opacity=".7" fill-rule="evenodd" d="M4 1C2.338 1 1 2.338 1 4v8c0 1.662 1.338 3 3 3h8c1.662 0 3-1.338 3-3V4c0-1.662-1.338-3-3-3zm0 1h8c1.108 0 2 .892 2 2v8c0 1.108-.892 2-2 2H4c-1.108 0-2-.892-2-2V4c0-1.108.892-2 2-2z" style="paint-order:stroke fill markers"/>
    <path fill="#050505" fill-opacity=".7" fill-rule="evenodd" d="M4.416 3 13 11.584V10.17L5.83 3zm4.242 0L13 7.342V5.928L10.072 3zM3 4.416V5.83L10.17 13h1.414zm0 4.242v1.414L5.928 13h1.414z" style="paint-order:stroke fill markers"/>
</svg>
